X: 1889
T: Around The House And Mind The Dresser
R: slide
M: 12/8
K: Dmajor
g|:fef A2 A BAB G2 g|fef A2 A B3 g3|
fef A2 A BAB G2 g|faf gec d3 d2 g:|
|:faf afd ege gec|f/g/af afd f3 a3|
faf afd ege gec|f2 d gec d3 d2 g:|

